X: 13
P: No. XIII.
M: C|
L: 1/8
K: Gm
V: 1
[|\
de |\
f2f2 fgfe | f2F2 F2ef | g2g2 gagf |
g2G2 G2ga |\
b2B2 BcdB | bBd'2 Tc'2b2 | a2Tg2 f2=ed | f2c2 cdec |\
f2c2 c2{d}ef | g2d2 defd | g4 Te2de | f2B2 Tf2ef |\
g2d2 c2B2 | cBAG ^FGAF | G4 G4 |]
V: 2 clef=bass middle=d
[|\
g^fga g2a2 | babc' d'2b2 | g2b2 d'2d2 | g2d2 G2 |]|
z2 |\
z2d'2 b2c'2 | z2f2 f2z2 | z2B2 c2d2 | z2g2 g2z2 |\
z2B2 B2z2 | B2b2 a2g2 | f2c2 f2b2 | a4 c'4 |
a4 f4 | b4 g4 | z2g2 c'2c2 | z2d'2 a4 |\
b4 a2g2 | a2c'2 d'2d2 | g4 G4 |]

